!!!!SEGMENT: pl-kk--kk-i-387--001_anonim--alleluia-virga-jesse-floruit.krn
!!!cenid: 18xx:1415
!!!COM: Anonim
!!!COM-rismID: pe30004985
!!!CDT:
!!!CNT:
!!!OTL: Alleluia Virga Jesse floruit
!!!PDT:
!!!AGN: Sacred
!!!SMS-siglum: PL-Kk
!!!SMS-shelfmark: Kk.I.387
!!!SMS-shelfwork: 001 W
!!!SMS-variant:
!!!SMS-altvar:
!!!NIFC-rismSourceID: 1001138130
!!!NIFC-islandoraID: pl-kk:16102
!!!URL-pdf-islandora: https://repozytorium.nifc.pl/islandora/object/pl-kk%3A16102/datastream/PDF/view
!!!URL-scan:
!!!ONB-nifc:
!!!AIN: 1 alto 1 bass 1 soprn 1 tenor
!!!key:
**kern	**text	**kern	**text	**kern	**text	**kern	**text
*part4	*part4	*part3	*part3	*part2	*part2	*part1	*part1
*staff4	*staff4	*staff3	*staff3	*staff2	*staff2	*staff1	*staff1
*Ibass	*	*Itenor	*	*Ialto	*	*Isoprn	*
*I"Basso.	*	*I"Tenore.	*	*I"Alto.	*	*I"Soprano.	*
*I'B	*	*I'T	*	*I'A	*	*I'S	*
*clefF4	*	*clefC4	*	*clefC3	*	*clefC1	*
*k[]	*	*k[]	*	*k[]	*	*k[]	*
*G:	*	*G:	*	*G:	*	*G:	*
*M3/2	*	*M3/2	*	*M3/2	*	*M3/2	*
=1	=1	=1	=1	=1	=1	=1	=1
*2\right	*	*2\right	*	*2\right	*	*2\right	*
!LO:TX:i:a:t=Graduali et Offertoria variorum Autorum	!	!LO:TX:i:a:t=Graduali, et. Offertoria variorum Autorum.	!	!LO:TX:i:a:t=Graduali et Offertoria, variorum Autorum.	!	!LO:TX:i:a:t=Graduali et Offertoria variorum Autorum.	!
!LO:TX:i:a:t=No I.	!	!LO:TX:i:a:t=No I.	!	!LO:TX:i:a:t=No I.	!	!LO:TX:i:a:t=No I.	!
!LO:TX:a:t=P:problem=all\right&colon; global	!	!LO:TX:a:t=P:problem=all\right&colon; global	!	!LO:TX:a:t=P:problem=all\right&colon; global	!	!LO:TX:a:t=P:problem=all\right&colon; global	!
!LO:TX:a:t=P:problem= napis "No I." przed kluczem	!	!LO:TX:a:t=P:problem= napis "No I." przed kluczem	!	!LO:TX:a:t=P:problem= napis "No I." przed kluczem	!	!LO:TX:a:t=P:problem= napis "No I." przed kluczem	!
!LO:TX:a:t=P:problem= napis "Basso." nad pięciolinią	!	!LO:TX:a:t=P:problem= napis "Tenore." nad pięciolinią	!	!LO:TX:a:t=P:problem= napis "Alto." nad pięciolinią	!	!LO:TX:a:t=P:problem= napis "Soprano." nad pięciolinią	!
2G\	Al-	2B\	Al-	2d\	Al-	2dd\	Al-
2G\	-le-	2B\	-le-	2d\	-le-	2dd\	-le-
2G\	-lu-	2B\	-lu-	2g\	-lu-	2dd\	-lu-
=2	=2	=2	=2	=2	=2	=2	=2
2.C/	-ia	1c	-ia	2.g\	-ia	2.ee\	-ia-
4D/	.	.	.	4f\	.	4dd\	.
2E\	al-	2c\	al-	2e\	.	2cc\	-a
=3	=3	=3	=3	=3	=3	=3	=3
2G\	-le-	1G	-le-	2d\	al-	2b\	al-
2.D\	.	.	.	2.d\	-le-	2.a\	-le-
.	.	2F#X/	-lu-	.	.	.	.
4D\	-lu-	.	.	4d\	-lu-	4a\	-lu-
=4	=4	=4	=4	=4	=4	=4	=4
1GG	-ia,	1G	-ia,	1d	-ia,	1b	-ia
!	!	!	!	!	!LO:SIC:s=al-	!	!
2D\	al-	2A\	al-	2d\	all-	2dd\	al-
=5	=5	=5	=5	=5	=5	=5	=5
1A	-le-	1A	-le-	1e	-le-	1cc#X	-le-
2AA/	-lu-	2A\	-lu-	2e\	-lu-	2cc#\	-lu-
=6	=6	=6	=6	=6	=6	=6	=6
1.D	-ia,	1.A	-ia,	1.d	-ia,	1.dd	-ia,
!	!	!	!	!LO:LB:g=original	!	!LO:LB:g=original	!
=7	=7	=7	=7	=7	=7	=7	=7
2A\	al-	2e\	al-	1a	al-	2ccn\	Al-
2A\	-le-	2e\	-le-	.	.	2cc\	-le-
2A\	-lu-	2e\	-lu-	2a\	-le-	2cc\	-lu-
!LO:LB:g=original	!	!LO:LB:g=original	!	!	!	!	!
=8	=8	=8	=8	=8	=8	=8	=8
2.E\	-ia	2e\	-ia	2.g#X\	-lu-	4b\	-ia
.	.	.	.	.	.	4a\	.
.	.	4d\	.	.	.	4g\	.
4F\	.	4c\	.	4f#X\	.	4a\	.
2G\	al-	2B\	.	2e\	-ia	4b\	.
.	.	.	.	.	.	4cc\	al-
=9	=9	=9	=9	=9	=9	=9	=9
2A\	-le-	2c\	al-	2e\	al-	1a	-le-
2.E\	.	2.B\	-le-	2.e\	-le-	.	.
.	.	.	.	.	.	2g#X\	-lu-
4E\	-lu-	4B\	-lu-	4e\	-lu-	.	.
=10	=10	=10	=10	=10	=10	=10	=10
2.AA/	-ia	1c	-ia,	2.e\	-ia	2a\	-a,
.	.	.	.	.	.	4ee\	al-
4BB/	.	.	.	4d\	.	4dd\	.
2C/	.	2c\	al-	4c\	.	4cc\	.
.	.	.	.	4e\	.	4b\	.
=11	=11	=11	=11	=11	=11	=11	=11
2F\	-al-	1c	-le-	4fn\	al-	2a\	.
.	.	.	.	4e\	.	.	.
2G\	-le-	.	.	2.d\	-le-	2.dd\	-le-
2GG/	-lu-	2B\	-lu-	.	.	.	.
.	.	.	.	4d\	-lu-	4dd\	-lu-
!	!	!	!	!	!	!LO:LB:g=original	!
=12	=12	=12	=12	=12	=12	=12	=12
2.C/	-ia	2c\	-ia,	2.e\	-ia	2.cc\	-a
.	.	2.c\	al-	.	.	.	.
4D\	.	.	.	4d\	.	8b\L	.
.	.	.	.	.	.	8a\J	.
2E\	al-	.	.	2c\	.	2g\	al-
.	.	4B\	-le-	.	.	.	.
!	!	!	!	!LO:LB:g=original	!	!	!
=13	=13	=13	=13	=13	=13	=13	=13
2F\	le-	2A\	-lu-	4f\	al-	2a\	.
.	.	.	.	4e\	.	.	.
2G\	.	2.d\	-ia	2.d\	-le-	2.g\	-le-
2GG/	-lu-	.	.	.	.	.	.
.	.	4d\	al-	4d\	-lu-	4g\	-lu-
=14	=14	=14	=14	=14	=14	=14	=14
1C	-ia	(>1c	.	1e	-ia	1g	-ia
2G\	al-	2d\)	.	2g\	al-	2b\	al-
!LO:LB:g=original	!	!LO:LB:g=original	!	!	!	!	!
=15	=15	=15	=15	=15	=15	=15	=15
1D	-le-	1d	-le-	1g	-le-	1a	-le-
2D\	-lu-	2d\	-lu-	2f#X\	-lu-	2a\	-lu-
=16	=16	=16	=16	=16	=16	=16	=16
1.GG	-ia.	1.d	-ia,	1.g	-ia,	1.b	-ia,
=17||	=17||	=17||	=17||	=17||	=17||	=17||	=17||
2r	.	2r	.	2r	.	2r	.
2C/	Vir-	2c\	Vir-	2e\	Vir-	2g\	Vir-
2C/	-ga	2c\	-ga	2e\	-ga	2g\	-ga
=18	=18	=18	=18	=18	=18	=18	=18
1G	Jes-	1B	Jes-	1d	Jes-	1g	ies-
2G\	-se	2B\	-se	2d\	-se	2g\	-se
!	!	!	!	!	!	!LO:LB:g=original	!
=19	=19	=19	=19	=19	=19	=19	=19
1C	flo-	1c	flo-	1e	flo-	1g	flo-
2D\	-ru-	2A\	-ru-	2d\	-ru-	2f#X/	-ru-
!	!	!	!	!LO:LB:g=original	!	!	!
=20	=20	=20	=20	=20	=20	=20	=20
2GG/	-it,	2G/	-it,	2d\	-it,	2g\	-it,
2G\	Vir-	2G/	Virg-	2d\	Vir-	2b\	Vir-
2G\	-go	2G/	-go	2d\	-go	2b\	-go
=21	=21	=21	=21	=21	=21	=21	=21
2F\	De-	2A\	De-	2fn\	De-	2cc\	De-
2F\	-um	2A\	-um	2f\	-um	2cc\	-um
2C/	et	2c\	et	2g\	et	2ee\	et
!	!	!LO:LB:g=original	!	!	!	!	!
=22	=22	=22	=22	=22	=22	=22	=22
2.G\	Ho-	2.B\	Ho-	2.g\	Ho-	2.dd\	Ho-
4G\	-mi-	4B\	-mi-	4g\	-mi-	4dd\	-mi-
2F\	-nem	2A\	-nem	2a\	-nem	2d/	-nem
!LO:LB:g=original	!	!	!	!	!	!	!
=23	=23	=23	=23	=23	=23	=23	=23
1E	Ge-	1G	ge-	2.B/	ge-	1e	ge-
.	.	.	.	4c/	.	.	.
2D\	-nu-	2Fn/	-nu-	4d/	.	2f#X/	-nu-
.	.	.	.	4B/	-nu-	.	.
=24	=24	=24	=24	=24	=24	=24	=24
2C/	-it	2E/	-it,	2c\	-it,	2g\	-it,
2C/	pa-	2E/	pa-	2e\	pa-	2g\	pa-
2C/	-cem	2E/	-cem	2e\	-cem	2g\	-cem
!	!	!	!	!	!	!LO:LB:g=original	!
=25	=25	=25	=25	=25	=25	=25	=25
1BB	De-	1G	De-	1d	De-	1g	De-
2C/	-us	2E/	-us	2c\	-us	2g\	-us
!	!	!	!	!LO:LB:g=original	!	!	!
=26	=26	=26	=26	=26	=26	=26	=26
2F\	red-	4F/	re-	1c	red-	2a\	re-
.	.	4E/	.	.	.	.	.
2G\	.	2.D/	.	.	.	2.g\	.
2GG/	-di-	.	.	2B/	-di-	.	.
.	.	4D/	-di-	.	.	4g\	-di-
=27	=27	=27	=27	=27	=27	=27	=27
2C/	-dit,	2E/	-dit,	2c\	-dit,	2g\	-dit,
2G\	in	2G/	in	2d\	in	2b\	in
2G\	se	2G/	se	2d\	se	2b\	ce,
!	!	!LO:LB:g=original	!	!	!	!	!
=28	=28	=28	=28	=28	=28	=28	=28
2.F\	re-	2.A\	re-	1f	re-	2.cc\	re-
4G\	.	4B\	.	.	.	4b\	.
2A\	-con-	2c\	.	2e\	-con-	2a\	.
=29	=29	=29	=29	=29	=29	=29	=29
2G\	-ci-	2B\	-con-	1g	-ci-	2dd\	-con-
2.D\	.	2.A\	-ci-	.	.	2.dd\	-ci-
.	.	.	.	2f#X\	-li-	.	.
4D\	-li-	4A\	-li-	.	.	4dd\	-li-
!LO:LB:g=original	!	!	!	!	!	!	!
=30	=30	=30	=30	=30	=30	=30	=30
2GG/	-ans,	2B\	-ans,	2g\	-ans	2dd\	-ans
2G\	re-	2B\	re-	2d\	re-	2g\	re-
2G\	-con-	2B\	-con-	2d\	-con-	2g\	-con-
!	!	!	!	!	!	!LO:LB:g=original	!
=31	=31	=31	=31	=31	=31	=31	=31
2.F\	-ci-	2.c\	-ci-	2.fn\	-ci-	2.a\	-ci-
4F\	-li-	4d\	-li-	4f\	-li-	4b\	-li-
2E\	-ans	2e\	-ans	2g\	-ans	2cc#X\	-ans
=32	=32	=32	=32	=32	=32	=32	=32
4D\	i-	2f\	im-	2a\	i-	2dd\	im-
4E\	.	.	.	.	.	.	.
4F\	.	4e\	.	4g\	.	2.a\	-a
4G\	.	4d\	.	4f\	.	.	.
2A\	.	2c#X\	.	2e\	.	.	.
.	.	.	.	.	.	4g\	.
!	!	!	!	!LO:LB:g=original	!	!	!
=33	=33	=33	=33	=33	=33	=33	=33
!	!	!	!	!	!	!	!LO:SIC:s=sum-
2B-\	-ma,	2d\	-ma	2d\	-ma	2f/	su-
!	!	!LO:LB:g=original	!	!	!	!	!
2G\	sum-	(>2d\	sum-	(>2g\	sum-	2b-X\	.
2A\	.	2c#X\)	.	2e\)	.	2a\	.
=34	=34	=34	=34	=34	=34	=34	=34
2D\	-mis	2d\	-mis,	2f\	-mis,	2a\	-mis,
2D\	re-	2d\	re-	2f\	re-	2a\	re-
2BBn/	-con-	2d\	-con-	2d\	-con-	2bn\	-con-
!LO:LB:g=original	!	!	!	!	!	!	!
=35	=35	=35	=35	=35	=35	=35	=35
4AA/	-ci-	2e\	-ci-	2a\	-ci-	2cc\	-ci-
4BB/	.	.	.	.	.	.	.
4C/	.	4d\	.	2.e\	.	4b\	.
4D/	-li-	4c\	-li-	.	.	4a\	-li-
2E\	-ans	2B\	-ans	.	.	2g#X\	-ans
.	.	.	.	4d\	-li-	.	.
!	!	!	!	!	!	!LO:LB:g=original	!
=36	=36	=36	=36	=36	=36	=36	=36
2F\	im-	2A\	im-	2c\	-ans,	2a\	im-
2D\	-ma	2d\	-a	(>2f\	i-	2a\	-a
2E\	sum-	2B\	sum-	2e\)	.	2g#X\	sum-
=37	=37	=37	=37	=37	=37	=37	=37
2AA/	-mis	2c\	-mis	2e\	-ma,	2a\	-mis,
2C/	re-	2c\	re-	2e\	re-	2gn\	al-
2G\	-con-	2d\	-con-	2d\	-con-	2b\	-le-
=38	=38	=38	=38	=38	=38	=38	=38
2.F\	-ci-	2.A\	-ci-	2.f\	-ci-	2.cc\	-lu-
4G\	-li-	4B\	-li-	4f\	-li-	4b\	.
2A\	-ans	2c\	-ans	2e\	-ans	2a\	-ia
!	!	!LO:LB:g=original	!	!	!	!	!
=39	=39	=39	=39	=39	=39	=39	=39
2G\	im-	2B\	im-	2g\	i-	2dd\	al-
2D\	-ma	2d\	-ma	2g\	-ma	2a\	-le-
!	!LO:SIC:s=sum-	!	!LO:SIC:s=sum-	!	!LO:SIC:s=sum-	!	!
2D\	su-	2d\	su-	2f#X\	su-	2a\	-lu-
=40	=40	=40	=40	=40	=40	=40	=40
!LO:TX:a:t=P:problem= napis za kreską	!	!LO:TX:a:t=P:problem= napis za kreską na pięciolinii	!	!	!	!	!
!LO:TX:i:a:t=alleluia\nDa Capo.	!	!LO:TX:i:a:t=Alleluia Da Capo.	!	!	!	!	!
1.GG	-mis.	1.d	-mis.	1.g	-mis.	1.b	-ia.
==	==	==	==	==	==	==	==
*-	*-	*-	*-	*-	*-	*-	*-
!!!system-decoration: [(s1,s2,s3,s4)]
!!!RDF**kern: > = above
!!!RDF**kern: < = below
!!!EED: Mateusz Mrugas
!!!EEV: 2021-01-16
!!!ENC: Berenika Jozajtis
!!!END: 2021-01-16
!!!YEC: Copyright 2022 Narodowy Instytut Fryderyka Chopina (https://polishscores.org)
!!!YEM: Licence CC BY 4.0 (https://creativecommons.org/licenses/by/4.0)
